X: 2048
T: Wayward Reel
C:David Harris
B: steve tunes
M:4/4
Q: 1/4=101
K:A
V:1 
"F#m"F2-FA "B"BcBA|"B"c=cBA "F#m"F2EA|"B"B2>e2f2>a2|"F#m"feca f2fa|"B"bafc ="C#m"cBA^c|
"B"f2-fc "F#m"FGAB|"F#m"cfec ="B"cBA^c|"C#m"BAGE "F#m"F2z2:||:"B"b2>c'2 bafa |"B"fece "F#m"f2>c2|
"B"fgac' "F#m"fgab|"F#m"gfed c=cBA|"B"FEFA "C#m"BAB^c| "B"f2-fc "F#m"FGAB|"F#m"c z z d "B"cBAc|"C#m"=cBGE "F#m"F4:|
W: 
% abcbook-tune_id 62a5664fc2b13b02a341c88f


% abcbook-boost 0
% abcbook-tablature 
% abcbook-transpose 
% abcbook-lastupdated 1655013147066
% abcbook-soundfonts 
% abcbook-repeats 3


